X:282
T:Sean sa cheo
T:Sean in the fog
T:Jack and Jill
R:Reel
B:Ceol Rince 2 n297
S:Richard Darsie's web page
Z:Transcription, chords:Mike Long
M:C|
L:1/8
K:D
"A"~e2df eABd|"A"~e3 g "G"deBA|"A"Beed e3d|"G"Bdge dGBd:|\
|:"A"cA ~A2 cABd|
"A"cA ~A2 "G"dGBd|"A"cA ~A2 EA ~A2|[1 "G"B2 ge dGBd:|[2 "G"B2 ge defg|]\
"A"~a2 c'a ~a2 c'a|~a2 c'a ~e3 f|
"G"~g2 bg ~g2 bg|~g2 bg ~e3 g|\
"A"~a2 c'a ~a2 c'a|~a2 c'a ~e3 f|"G"~g3 a bgef|g2 ef dGBd|]
